X:780
T:Gi'e the Lasses mair o't
B:Aird's Airs and Melodies vol 3
M:C
Z:Richard Robinson 
%%TUNEURL: http://www.leeds.ac.uk/music/Info/RRTuneBk/gettune/0000022c.html
%%ID:0000022c
K:D
F|\
A2A2 (d>e f>)(e| dF E>D EF| \
A2A2 d>e f>e| (dF "tr"E2D:|
f|\
a<f f>b a>g "tr"ed| (c/d/e/f/ g)>e b>e g>e|\
a<f f>b af ed| (c/d/e/f/ g)f "tr"e2d2|
a(<f f>)b a>f "tr"ed| (c/d/e/f/ g)e b>e g>e|\
a>f e>d d>e f>e| dF "tr"E2D|]
